assets/images/icons/cursors/cursor_download_pink.svg

<svg fill="none" height="120" viewBox="0 0 140 140" width="120" xmlns="http://www.w3.org/2000/svg"><path d="m46.6667 0v9.33333h-18.6667v9.33337h-9.3333v9.3333h-9.33337v18.6667h-9.33333v46.6666h9.33333v18.6667h9.33337v9.333h9.3333v9.334h18.6667v9.333h46.6666v-9.333h18.6667v-9.334h9.333v-9.333h9.334v-18.6667h9.333v-46.6666h-9.333v-18.6667h-9.334v-9.3333h-9.333v-9.33337h-18.6667v-9.33333z" fill="#e8bdff"/><path clip-rule="evenodd" d="m85 68v6h-6v-6zm-12 12v-6h6v6zm-6 0h6v6h-6zm-6-6v6h6v-6h6v-30h-6v30zm0 0h-6v-6h6zm-6.0049 22h30v-6h-30z" fill="#000" fill-rule="evenodd"/></svg>

<svg width="120" height="120" viewBox="0 0 140 140" fill="none" xmlns="http://www.w3.org/2000/svg">
<path d="M46.6667 0V9.33333H28V18.6667H18.6667V28H9.33333V46.6667H0V93.3333H9.33333V112H18.6667V121.333H28V130.667H46.6667V140H93.3333V130.667H112V121.333H121.333V112H130.667V93.3333H140V46.6667H130.667V28H121.333V18.6667H112V9.33333H93.3333V0H46.6667Z" fill="#E8BDFF"/>
<path fill-rule="evenodd" clip-rule="evenodd" d="M85 68L85 74L79 74L79 68L85 68ZM73 80L73 74L79 74L79 80L73 80ZM67 80L73 80L73 86L67 86L67 80ZM61 74L61 80L67 80L67 74L73 74L73 44L67 44L67 74L61 74ZM61 74L55 74L55 68L61 68L61 74ZM54.9951 96L84.9951 96L84.9951 90L54.9951 90L54.9951 96Z" fill="black"/>
</svg>
